X: 22571
T: Lady Margaret Stewart's
R: polka
M: 2/4
K: Bminor
FBBc dcBA|EAAB cdec|BFBc d3 b|afec B3:|
f2 Bf dfBf|eaef ecAa|f3 B dfBb|afec Bcda|
f3 B d f3|eaef e c3|BFBc dcdb|afec B3||

